X:102
T: Cai Cha diao
N: C0130
O: China, Hunan, Westen
S: I, 542]
N: Zu dieser Melodie gibt es viele Varianten.
N: Wenig Verzierungen.
R: Wuge, Dengdiao, Caicha. Chanong shenghuo]
M: 3/4
L: 1/32
K: Bb
c2b2b2g2c2b4c2d8 | c2f2d4c2b2g2f2b8 |
d2d4d2c8g8 | c2b2g2f2g4d2d2c8 | g8b4g2f2g8 |
b2b4g2b6c2d8 | c2f2d4c3b(3g2f2g2b8
d2d2d2d2c8g8 | c2b2g2f2g4d2d2c8 | g8c2b2g2f2g8

